icons/security-file-shield-2-filled.svg

<svg viewBox="0 0 24 24"><path fill="currentColor" fill-rule="evenodd" d="M15.6 2.4h-8.4a3.6 3.6 0 0 0-3.6 3.6v12a3.6 3.6 0 0 0 3.6 3.6h3.7q.7-.1.5-.8a6.5 6.5 0 0 1 7.2-8.7q.5 0 .6-.5v-5.6a3.6 3.6 0 0 0-3.6-3.6Zm-9.4 3.8a1 1 0 0 1 1-1h7.8a1 1 0 1 1 0 2h-7.8a1 1 0 0 1-1-1Zm0 4.6a1 1 0 0 1 1-1h4.2a1 1 0 1 1 0 2h-4.2a1 1 0 0 1-1-1Zm0 4.6a1 1 0 0 1 1-1h1.8a1 1 0 1 1 0 2h-1.8a1 1 0 0 1-1-1Z" clip-rule="evenodd"/><path fill="currentColor" d="m18.4 15 2.1 1v3.3q0 1.6-3 3.2-3-1.7-3-3.2v-3.3l2.1-1a2 2 0 0 1 1.8 0Z"/></svg>

<svg viewBox="0 0 24 24"><path fill="currentColor" fill-rule="evenodd" d="M15.6 2.4H7.2A3.6 3.6 0 0 0 3.6 6v12a3.6 3.6 0 0 0 3.6 3.6h3.7q.7-.1.5-.8a6.5 6.5 0 0 1 7.2-8.7q.5 0 .6-.5V6a3.6 3.6 0 0 0-3.6-3.6M6.2 6.2a1 1 0 0 1 1-1H15a1 1 0 1 1 0 2H7.2a1 1 0 0 1-1-1m0 4.6a1 1 0 0 1 1-1h4.2a1 1 0 1 1 0 2H7.2a1 1 0 0 1-1-1m0 4.6a1 1 0 0 1 1-1H9a1 1 0 1 1 0 2H7.2a1 1 0 0 1-1-1" clip-rule="evenodd"/><path fill="currentColor" d="m18.4 15 2.1 1v3.3q0 1.6-3 3.2-3-1.7-3-3.2V16l2.1-1a2 2 0 0 1 1.8 0"/></svg>
